librerie/youwebbusiness/fe/img/login/help.svg

<?xml version="1.0" encoding="UTF-8"?>
<svg width="20px" height="20px" viewBox="0 0 20 20" version="1.1" xmlns="http://www.w3.org/2000/svg" xmlns:xlink="http://www.w3.org/1999/xlink">
    <!-- Generator: Sketch 61 (89581) - https://sketch.com -->
    <title>02 - icon/need-help</title>
    <desc>Created with Sketch.</desc>
    <g id="02---icon/need-help" stroke="none" stroke-width="1" fill="none" fill-rule="evenodd">
        <path d="M8.34570314,3 C11.2156219,3 13.5641937,5.27337647 13.6860657,8.11381528 C15.6250152,8.65107727 17,10.4339752 17,12.4746094 C17,13.289154 16.7830658,14.0812683 16.3708801,14.7772522 L16.3708801,14.7772522 L16.7450035,16.1298016 C16.7691311,16.217029 16.7691311,16.3091695 16.7450035,16.3963969 C16.6713852,16.6625452 16.3959499,16.8186217 16.1298015,16.7450035 L16.1298015,16.7450035 L14.7772522,16.3708801 C14.0812683,16.7830658 13.289154,17 12.4746094,17 C10.4338684,17 8.65086363,15.6249085 8.11370851,13.6858521 C7.23486328,13.6479339 6.38336182,13.3964996 5.62852478,12.9501343 L5.62852478,12.9501343 L3.87006647,13.4364551 C3.78284386,13.4605775 3.69070966,13.4605752 3.60348821,13.4364486 C3.33734031,13.3628286 3.18126562,13.0873923 3.25488564,12.8212444 L3.25488564,12.8212444 L3.74127197,11.0628815 C3.25570677,10.2417145 3,9.30636594 3,8.34570311 C3,5.39802552 5.39802552,3 8.34570314,3 Z M13.5265571,9.22451561 C13.2636099,11.504449 11.4493529,13.3186791 9.1694849,13.5815234 C9.63301377,14.9618771 10.9413055,15.9245156 12.4301503,15.9245156 C13.0971361,15.9245156 13.7441926,15.733257 14.3011213,15.371462 L14.3011213,15.371462 L14.4447905,15.2779644 L15.704192,15.7848953 L15.2229241,14.4998423 L15.3164231,14.3561752 C15.6782235,13.7992548 15.8694849,13.1522078 15.8694849,12.4852319 C15.8694849,10.9964091 14.9068321,9.68813679 13.5265571,9.22451561 Z M8.35000001,4 C5.95138077,4 4,5.95138077 4,8.34999998 C4,9.18246319 4.23583718,9.99141452 4.68194627,10.6893776 L4.68194627,10.6893776 L4.77660971,10.8374304 L4.36130217,12.3386978 L5.86256962,11.9233903 L6.01062241,12.0180537 C6.70868817,12.4641628 7.51753682,12.7 8.35000001,12.7 C10.7486192,12.7 12.7,10.7486192 12.7,8.34999998 C12.7,5.95138077 10.7486192,4 8.35000001,4 Z M8.5,10.5 C8.77614237,10.5 9,10.7238576 9,11 C9,11.2761424 8.77614237,11.5 8.5,11.5 C8.22385763,11.5 8,11.2761424 8,11 C8,10.7238576 8.22385763,10.5 8.5,10.5 Z M8.519956,5.5 L8.68153615,5.50409758 C9.79352236,5.56389267 10.5012343,6.27101639 10.5,7.24607576 C10.499199,7.76439849 10.2726281,8.13206904 9.69742018,8.61178119 L9.69742018,8.61178119 L9.23210601,8.98744472 C9.06312714,9.13212603 8.98859079,9.22896766 8.98789573,9.26847665 L8.98789573,9.26847665 L8.98796168,9.52911922 C8.98884344,9.78436043 8.77472775,9.98960868 8.51243278,9.99043782 C8.25016696,9.99125206 8.0346839,9.78739341 8.03380442,9.5325771 L8.03380442,9.5325771 L8.0338682,9.25287929 C8.03997866,8.90554552 8.2124392,8.63035566 8.60019644,8.29839586 L8.60019644,8.29839586 L9.08512915,7.90616831 C9.42716455,7.61873217 9.54552631,7.44106051 9.54582544,7.24483215 C9.54647845,6.73363014 9.1927053,6.41799773 8.52234089,6.41960421 C7.82115171,6.42129381 7.45416472,6.78854439 7.45416472,7.42442254 C7.45416472,7.67965061 7.23936335,7.88420504 6.97708236,7.88420504 C6.71480137,7.88420504 6.5,7.67965061 6.5,7.42442254 C6.5,6.28658388 7.27835582,5.50303381 8.519956,5.5 L8.519956,5.5 Z" id="Combined-Shape" fill="#000000"></path>
    </g>
</svg>

<?xml version="1.0" encoding="utf-8"?>
<!-- Generator: Adobe Illustrator 24.0.2, SVG Export Plug-In . SVG Version: 6.00 Build 0)  -->
<svg version="1.1" id="Livello_1" xmlns="http://www.w3.org/2000/svg" xmlns:xlink="http://www.w3.org/1999/xlink" x="0px" y="0px"
	 viewBox="0 0 20 20" style="enable-background:new 0 0 20 20;" xml:space="preserve">
<style type="text/css">
	.st0{fill-rule:evenodd;clip-rule:evenodd;fill:#2F9988;}
</style>
<title>02 - icon/need-help</title>
<desc>Created with Sketch.</desc>
<g id="_x30_2---icon_x2F_need-help">
	<path id="Combined-Shape" class="st0" d="M8.3,3c2.9,0,5.2,2.3,5.3,5.1c1.9,0.5,3.3,2.3,3.3,4.4c0,0.8-0.2,1.6-0.6,2.3l0,0l0.4,1.4
		c0,0.1,0,0.2,0,0.3c-0.1,0.3-0.3,0.4-0.6,0.3l0,0l-1.4-0.4c-0.7,0.4-1.5,0.6-2.3,0.6c-2,0-3.8-1.4-4.4-3.3c-0.9,0-1.7-0.3-2.5-0.7
		l0,0l-1.8,0.5c-0.1,0-0.2,0-0.3,0c-0.3-0.1-0.4-0.3-0.3-0.6l0,0l0.5-1.8C3.3,10.2,3,9.3,3,8.3C3,5.4,5.4,3,8.3,3z M13.5,9.2
		c-0.3,2.3-2.1,4.1-4.4,4.4c0.5,1.4,1.8,2.3,3.3,2.3c0.7,0,1.3-0.2,1.9-0.6l0,0l0.1-0.1l1.3,0.5l-0.5-1.3l0.1-0.1
		c0.4-0.6,0.6-1.2,0.6-1.9C15.9,11,14.9,9.7,13.5,9.2z M8.4,4C6,4,4,6,4,8.4c0,0.8,0.2,1.6,0.7,2.3l0,0l0.1,0.1l-0.4,1.5l1.5-0.4
		L6,12c0.7,0.4,1.5,0.7,2.3,0.7c2.4,0,4.3-2,4.3-4.3S10.7,4,8.4,4z M8.5,10.5C8.8,10.5,9,10.7,9,11s-0.2,0.5-0.5,0.5S8,11.3,8,11
		S8.2,10.5,8.5,10.5z M8.5,5.5l0.2,0c1.1,0.1,1.8,0.8,1.8,1.7c0,0.5-0.2,0.9-0.8,1.4l0,0L9.2,9C9.1,9.1,9,9.2,9,9.3l0,0l0,0.3
		C9,9.8,8.8,10,8.5,10C8.3,10,8,9.8,8,9.5l0,0l0-0.3c0-0.3,0.2-0.6,0.6-1l0,0l0.5-0.4c0.3-0.3,0.5-0.5,0.5-0.7c0-0.5-0.4-0.8-1-0.8
		c-0.7,0-1.1,0.4-1.1,1c0,0.3-0.2,0.5-0.5,0.5S6.5,7.7,6.5,7.4C6.5,6.3,7.3,5.5,8.5,5.5L8.5,5.5z"/>
</g>
</svg>
